X:72
T:Brandlings
R:Reel
C:Abraham Mackintosh
B:The Athole Collection
M:C|
L:1/8
K:A
e|cA A/A/A eAcA|eagf fedc|dB B/B/B fBdB|fefg bagf|
eA A/A/A aAcA|efga fedc|defg abaf|ecaf e2A||
f|eAcA cecA|aAgA fAfA|fBdB dfdB|bBaB gBfB|eAcA aAcA|
efga fedc|defg abaf|ecaf e2A||

